SharedPackages/Infrastructure/DesignResourcesKitIcons/Sources/DesignResourcesKitIcons/DesignSystemImages.xcassets/Color/16px/Favorite-Color-16.imageset/Favorite-Color-16.svg

<svg width="16" height="16" viewBox="0 0 16 16" fill="none" xmlns="http://www.w3.org/2000/svg">
<g clip-path="url(#clip0_13193_106586)">
<path d="M6.61521 1.41966C7.12962 0.192634 8.86815 0.192635 9.38255 1.41966L10.4491 3.96375C10.6192 4.36957 10.9902 4.65607 11.4258 4.71814L14.2069 5.11436C15.4567 5.29242 15.9413 6.84023 15.0162 7.69918L12.8907 9.6727C12.5882 9.9536 12.4438 10.3657 12.5049 10.774L12.9537 13.7721C13.1453 15.0521 11.735 15.9578 10.6507 15.2512L8.68154 13.9678C8.26661 13.6974 7.73116 13.6974 7.31622 13.9678L5.34707 15.2512C4.26278 15.9578 2.85247 15.0521 3.04406 13.7721L3.49282 10.774C3.55393 10.3657 3.40957 9.9536 3.10704 9.6727L0.981591 7.69918C0.0565096 6.84023 0.541103 5.29242 1.79085 5.11436L1.97505 5.08812L4.57194 4.71814C5.00758 4.65607 5.37852 4.36957 5.54865 3.96375L6.61521 1.41966Z" fill="#D9D9D9"/>
<path d="M6.61521 1.41966C7.12962 0.192634 8.86815 0.192635 9.38255 1.41966L10.4491 3.96375C10.6192 4.36957 10.9902 4.65607 11.4258 4.71814L14.2069 5.11436C15.4567 5.29242 15.9413 6.84023 15.0162 7.69918L12.8907 9.6727C12.5882 9.9536 12.4438 10.3657 12.5049 10.774L12.9537 13.7721C13.1453 15.0521 11.735 15.9578 10.6507 15.2512L8.68154 13.9678C8.26661 13.6974 7.73116 13.6974 7.31622 13.9678L5.34707 15.2512C4.26278 15.9578 2.85247 15.0521 3.04406 13.7721L3.49282 10.774C3.55393 10.3657 3.40957 9.9536 3.10704 9.6727L0.981591 7.69918C0.0565096 6.84023 0.541103 5.29242 1.79085 5.11436L1.97505 5.08812L4.57194 4.71814C5.00758 4.65607 5.37852 4.36957 5.54865 3.96375L6.61521 1.41966Z" fill="#FFC95C"/>
<path fill-rule="evenodd" clip-rule="evenodd" d="M6.15415 1.22634C6.83999 -0.409595 9.15789 -0.409593 9.84373 1.22634L10.9103 3.77043C11.0124 4.01396 11.235 4.18589 11.4964 4.22314L14.2775 4.61936C15.9437 4.85675 16.5898 6.92038 15.3564 8.06559L13.231 10.0391C13.0495 10.2077 12.9628 10.455 12.9995 10.7L13.4483 13.6981C13.7037 15.4046 11.8234 16.6122 10.3778 15.6701L8.4086 14.3867C8.1596 14.2245 7.83828 14.2245 7.58928 14.3867L5.62013 15.6701C4.1745 16.6122 2.29419 15.4046 2.54963 13.6981L2.99839 10.7C3.03506 10.455 2.94843 10.2077 2.76689 10.0391L0.641434 8.06559C-0.591939 6.92038 0.0541515 4.85675 1.72039 4.61936L4.50148 4.22314C4.7629 4.18589 4.9855 4.01396 5.08759 3.77043L6.15415 1.22634ZM8.92149 1.61297C8.57852 0.794862 7.41936 0.794863 7.07639 1.61297L6.00983 4.15706C5.77166 4.72517 5.25238 5.12625 4.64252 5.21314L1.86143 5.60937C1.02817 5.72808 0.705074 6.76007 1.32186 7.33277L3.44732 9.30629C3.87082 9.69953 4.07292 10.2765 3.98737 10.848L3.53861 13.8461C3.41087 14.6996 4.35118 15.3035 5.07412 14.8323L7.04328 13.549C7.62415 13.1704 8.37373 13.1704 8.9546 13.549L10.9238 14.8323C11.6467 15.3035 12.587 14.6996 12.4593 13.8461L12.0105 10.848C11.925 10.2765 12.1271 9.69953 12.5506 9.30629L14.676 7.33278C15.2928 6.76007 14.9697 5.72808 14.1364 5.60937L11.3554 5.21314C10.7455 5.12625 10.2262 4.72517 9.98806 4.15706L8.92149 1.61297Z" fill="black"/>
<path fill-rule="evenodd" clip-rule="evenodd" d="M6.15415 1.22634C6.83999 -0.409595 9.15789 -0.409593 9.84373 1.22634L10.9103 3.77043C11.0124 4.01396 11.235 4.18589 11.4964 4.22314L14.2775 4.61936C15.9437 4.85675 16.5898 6.92038 15.3564 8.06559L13.231 10.0391C13.0495 10.2077 12.9628 10.455 12.9995 10.7L13.4483 13.6981C13.7037 15.4046 11.8234 16.6122 10.3778 15.6701L8.4086 14.3867C8.1596 14.2245 7.83828 14.2245 7.58928 14.3867L5.62013 15.6701C4.1745 16.6122 2.29419 15.4046 2.54963 13.6981L2.99839 10.7C3.03506 10.455 2.94843 10.2077 2.76689 10.0391L0.641434 8.06559C-0.591939 6.92038 0.0541515 4.85675 1.72039 4.61936L4.50148 4.22314C4.7629 4.18589 4.9855 4.01396 5.08759 3.77043L6.15415 1.22634ZM8.92149 1.61297C8.57852 0.794862 7.41936 0.794863 7.07639 1.61297L6.00983 4.15706C5.77166 4.72517 5.25238 5.12625 4.64252 5.21314L1.86143 5.60937C1.02817 5.72808 0.705074 6.76007 1.32186 7.33277L3.44732 9.30629C3.87082 9.69953 4.07292 10.2765 3.98737 10.848L3.53861 13.8461C3.41087 14.6996 4.35118 15.3035 5.07412 14.8323L7.04328 13.549C7.62415 13.1704 8.37373 13.1704 8.9546 13.549L10.9238 14.8323C11.6467 15.3035 12.587 14.6996 12.4593 13.8461L12.0105 10.848C11.925 10.2765 12.1271 9.69953 12.5506 9.30629L14.676 7.33278C15.2928 6.76007 14.9697 5.72808 14.1364 5.60937L11.3554 5.21314C10.7455 5.12625 10.2262 4.72517 9.98806 4.15706L8.92149 1.61297Z" fill="#B66A1F"/>
</g>
<defs>
<clipPath id="clip0_13193_106586">
<rect width="16" height="16" fill="white"/>
</clipPath>
</defs>
</svg>

<svg fill="none" viewBox="0 0 16 16" xmlns="http://www.w3.org/2000/svg">
  <g clip-path="url(#Favorite-Color-16_svg__a)">
    <path fill="#D9D9D9" d="M6.615 1.42C7.13.193 8.868.193 9.383 1.42l1.066 2.544c.17.406.541.692.977.754l2.78.396c1.25.178 1.735 1.726.81 2.585l-2.125 1.974a1.25 1.25 0 0 0-.386 1.101l.449 2.998c.191 1.28-1.219 2.186-2.303 1.48l-1.97-1.284a1.25 1.25 0 0 0-1.365 0L5.347 15.25c-1.084.707-2.495-.199-2.303-1.479l.449-2.998a1.25 1.25 0 0 0-.386-1.101L.982 7.699c-.925-.859-.44-2.407.809-2.585l.184-.026 2.597-.37a1.25 1.25 0 0 0 .977-.754L6.615 1.42Z"/>
    <path fill="url(#Favorite-Color-16_svg__b)" d="M6.615 1.42C7.13.193 8.868.193 9.383 1.42l1.066 2.544c.17.406.541.692.977.754l2.78.396c1.25.178 1.735 1.726.81 2.585l-2.125 1.974a1.25 1.25 0 0 0-.386 1.101l.449 2.998c.191 1.28-1.219 2.186-2.303 1.48l-1.97-1.284a1.25 1.25 0 0 0-1.365 0L5.347 15.25c-1.084.707-2.495-.199-2.303-1.479l.449-2.998a1.25 1.25 0 0 0-.386-1.101L.982 7.699c-.925-.859-.44-2.407.809-2.585l.184-.026 2.597-.37a1.25 1.25 0 0 0 .977-.754L6.615 1.42Z"/>
    <path fill="#000" fill-rule="evenodd" d="M6.154 1.226c.686-1.636 3.004-1.636 3.69 0L10.91 3.77a.75.75 0 0 0 .586.453l2.781.396c1.667.238 2.313 2.301 1.08 3.447l-2.126 1.973a.75.75 0 0 0-.232.661l.45 2.998c.255 1.707-1.626 2.914-3.071 1.972l-1.97-1.283a.75.75 0 0 0-.819 0L5.62 15.67c-1.446.942-3.326-.265-3.07-1.972l.448-2.998a.75.75 0 0 0-.231-.66L.64 8.065C-.592 6.92.054 4.856 1.721 4.619l2.78-.396a.75.75 0 0 0 .587-.453l1.066-2.544Zm2.767.387c-.342-.818-1.502-.818-1.845 0L6.01 4.157a1.75 1.75 0 0 1-1.367 1.056L1.86 5.61a1 1 0 0 0-.54 1.724l2.126 1.973c.424.394.626.97.54 1.542l-.448 2.998c-.128.854.812 1.457 1.535.986l1.97-1.283a1.75 1.75 0 0 1 1.91 0l1.97 1.283c.723.471 1.663-.132 1.535-.986l-.448-2.998a1.75 1.75 0 0 1 .54-1.542l2.125-1.973a1 1 0 0 0-.54-1.724l-2.78-.396a1.75 1.75 0 0 1-1.368-1.056L8.921 1.613Z" clip-rule="evenodd"/>
    <path fill="url(#Favorite-Color-16_svg__c)" fill-rule="evenodd" d="M6.154 1.226c.686-1.636 3.004-1.636 3.69 0L10.91 3.77a.75.75 0 0 0 .586.453l2.781.396c1.667.238 2.313 2.301 1.08 3.447l-2.126 1.973a.75.75 0 0 0-.232.661l.45 2.998c.255 1.707-1.626 2.914-3.071 1.972l-1.97-1.283a.75.75 0 0 0-.819 0L5.62 15.67c-1.446.942-3.326-.265-3.07-1.972l.448-2.998a.75.75 0 0 0-.231-.66L.64 8.065C-.592 6.92.054 4.856 1.721 4.619l2.78-.396a.75.75 0 0 0 .587-.453l1.066-2.544Zm2.767.387c-.342-.818-1.502-.818-1.845 0L6.01 4.157a1.75 1.75 0 0 1-1.367 1.056L1.86 5.61a1 1 0 0 0-.54 1.724l2.126 1.973c.424.394.626.97.54 1.542l-.448 2.998c-.128.854.812 1.457 1.535.986l1.97-1.283a1.75 1.75 0 0 1 1.91 0l1.97 1.283c.723.471 1.663-.132 1.535-.986l-.448-2.998a1.75 1.75 0 0 1 .54-1.542l2.125-1.973a1 1 0 0 0-.54-1.724l-2.78-.396a1.75 1.75 0 0 1-1.368-1.056L8.921 1.613Z" clip-rule="evenodd"/>
  </g>
  <defs>
    <linearGradient id="Favorite-Color-16_svg__b" x1="7.999" x2="7.999" y1="-1.382" y2="15.421" gradientUnits="userSpaceOnUse">
      <stop stop-color="#FFDE7A"/>
      <stop offset="1" stop-color="#F9BE1A"/>
    </linearGradient>
    <linearGradient id="Favorite-Color-16_svg__c" x1="7.999" x2="7.999" y1="-1.881" y2="17.074" gradientUnits="userSpaceOnUse">
      <stop stop-color="#E2A412"/>
      <stop offset="1" stop-color="#C18010"/>
    </linearGradient>
    <clipPath id="Favorite-Color-16_svg__a">
      <path fill="#fff" d="M0 0h16v16H0z"/>
    </clipPath>
  </defs>
</svg>
